X: 1286
T: The Christening
R:Reel
N:Collected by Cronin
B:O'Neill's 1286
Z:Transcribed by Trish O'Neil
M:C|
L:1/8
K:D
(3ABc|d3B BAFA|BcdB BAFA|BEED EFGe|fgec dcBc|
d>D (3DDD (FD)FA|Bcdc BAFA|BEED EFGe|fgecd2||
(3ABc|d2(fd A)dfd|Adfd cdec|d2(fd) Adfd|fgaf gfec|
d2(fd A)dfd|Adfd cdeg|Tf4Te4|a3f gfec|]


